assets/img/braze_icons/camera-03.svg

<svg fill="none" height="24" viewBox="0 0 24 24" width="24" xmlns="http://www.w3.org/2000/svg"><path clip-rule="evenodd" d="m6.7587 2h10.4826c.805-.00001 1.4693-.00002 2.0105.0442.5621.04592 1.0788.14448 1.5642.39178.7526.38349 1.3645.99541 1.748 1.74806.2473.48534.3459 1.00204.3918 1.56414.0442.54119.0442 1.20554.0442 2.0105v8.48262c0 .805 0 1.4693-.0442 2.0105-.0459.5621-.1445 1.0788-.3918 1.5642-.3835.7526-.9954 1.3645-1.748 1.748-.4854.2473-1.0021.3459-1.5642.3918-.5412.0442-1.2055.0442-2.0105.0442h-10.48262c-.80496 0-1.46931 0-2.0105-.0442-.5621-.0459-1.0788-.1445-1.56414-.3918-.75265-.3835-1.36457-.9954-1.74806-1.748-.2473-.4854-.34586-1.0021-.39178-1.5642-.044221-.5412-.044212-1.2055-.0442-2.0105v-8.48261c-.000012-.80496-.000021-1.46933.0442-2.01051.04592-.5621.14448-1.0788.39178-1.56414.38349-.75265.99541-1.36457 1.74806-1.74806.48534-.2473 1.00204-.34586 1.56414-.39178.54118-.04422 1.20557-.04421 2.01052-.0442zm9.2413 10c0 2.2091-1.7909 4-4 4-2.20914 0-4-1.7909-4-4 0-2.20914 1.79086-4 4-4 2.2091 0 4 1.79086 4 4z" fill="#801ed7" fill-rule="evenodd"/></svg>

<svg width="24" height="24" viewBox="0 0 24 24" fill="none" xmlns="http://www.w3.org/2000/svg">
<path fill-rule="evenodd" clip-rule="evenodd" d="M6.7587 2H17.2413C18.0463 1.99999 18.7106 1.99998 19.2518 2.0442C19.8139 2.09012 20.3306 2.18868 20.816 2.43598C21.5686 2.81947 22.1805 3.43139 22.564 4.18404C22.8113 4.66938 22.9099 5.18608 22.9558 5.74818C23 6.28937 23 6.95372 23 7.75868V16.2413C23 17.0463 23 17.7106 22.9558 18.2518C22.9099 18.8139 22.8113 19.3306 22.564 19.816C22.1805 20.5686 21.5686 21.1805 20.816 21.564C20.3306 21.8113 19.8139 21.9099 19.2518 21.9558C18.7106 22 18.0463 22 17.2413 22H6.75868C5.95372 22 5.28937 22 4.74818 21.9558C4.18608 21.9099 3.66938 21.8113 3.18404 21.564C2.43139 21.1805 1.81947 20.5686 1.43598 19.816C1.18868 19.3306 1.09012 18.8139 1.0442 18.2518C0.999979 17.7106 0.999988 17.0463 1 16.2413V7.75869C0.999988 6.95373 0.999979 6.28936 1.0442 5.74818C1.09012 5.18608 1.18868 4.66938 1.43598 4.18404C1.81947 3.43139 2.43139 2.81947 3.18404 2.43598C3.66938 2.18868 4.18608 2.09012 4.74818 2.0442C5.28936 1.99998 5.95375 1.99999 6.7587 2ZM16 12C16 14.2091 14.2091 16 12 16C9.79086 16 8 14.2091 8 12C8 9.79086 9.79086 8 12 8C14.2091 8 16 9.79086 16 12Z" fill="#801ED7"/>
</svg>
